X:1
T:Tamworth, 87.87.87
T:Tamworth, 87.87.87
T:Charles Lockhart, 1790
T:Public Domain Courtesy of the Cyber Hymnal™
C:Charles Lockhart, 1790
Z:Public Domain
Z:Courtesy of the Cyber Hymnal™
%%score ( 1 2 ) ( 3 4 )
L:1/8
Q:1/4=100
M:3/4
K:E
V:1 treble 
V:2 treble 
V:3 bass 
V:4 bass 
V:1
|: [EB]>[EG] | [Ee]3 B GE | F2 B,2 [B,E][EG] | [CF][FA] [EG]2 [DF]2 | E4 :| [GB]>[EG] | %6
 ([FA]>[GB]) [Ac]2 [B,F]>[FA] | ([EG]>[FA]) [GB]2 [Ee]>[EB] | [Ec][FA] [EG]2 [DF]2 | E4 |] %10
V:2
|: x2 | x3 B GE | F2 B,2 x2 | x6 | E4 :| x2 | x6 | x6 | x6 | E4 |] %10
V:3
|: [E,G,]>[E,B,] | [E,B,]3 B, G,E, | F,2 B,,2 [G,B,][E,B,] | A,[F,C] B,2 [B,,A,]2 | [E,G,]4 :| %5
 [G,B,]>[E,G,] | ([F,A,]>[G,B,]) [A,C]2 [B,,F,]>[F,A,] | ([E,G,]>[F,A,]) [G,B,]2 [G,B,]>[E,G,] | %8
 A,[F,C] B,2 [B,,A,]2 | [E,G,]4 |] %10
V:4
|: x2 | x3 B, G,E, | F,2 B,,2 x2 | A, B,2 x3 | x4 :| x2 | x6 | x6 | A, B,2 x3 | x4 |] %10

